images/lamps/lamp-traditional-right.svg

<?xml version="1.0" standalone="no"?><!DOCTYPE svg PUBLIC "-//W3C//DTD SVG 1.1//EN" "http://www.w3.org/Graphics/SVG/1.1/DTD/svg11.dtd"><svg width="96px" height="360px" version="1.1" xmlns="http://www.w3.org/2000/svg" xmlns:xlink="http://www.w3.org/1999/xlink" xml:space="preserve" style="fill-rule:evenodd;clip-rule:evenodd;stroke-linejoin:round;stroke-miterlimit:1.41421;"><g><g id="lamppost-right" transform="matrix(0.5,0,0,0.5,0,-24)"><g id="post"><path d="M82.9179,768l26.163,0l-3.831,-674.25l-17.75,-0.5l-4.582,674.75Z" style="fill:#5c5e5f;fill-rule:nonzero;"/><path d="M82.9179,768l26.163,0l-24.784,-203.396l-1.379,203.396Z" style="fill:#2a2b2a;fill-rule:nonzero;"/><path d="M87.5,92.25l-5.764,-17.409l14.771,-15.27l14.827,14.958l-6.084,18.221l-7.14,6.718l-10.61,-7.218Z" style="fill:#5c5e5f;fill-rule:nonzero;"/><path d="M106.124,242.075l-18.624,-149.825l17.75,0.5l0.874,149.325Z" style="fill:#2a2b2a;fill-rule:nonzero;"/></g><g id="lantern-right"><path d="M132.918,202.5l-20.918,-70l30.5,-20.25l17.75,0.5l30.75,19.584l-23.333,70.499" style="fill:#5c5e5f;fill-rule:nonzero;"/><path d="M191,133l-76.852,0l46.102,-19.75l30.75,19.75Z" style="fill:#2a2b2a;fill-rule:nonzero;"/><path d="M103.25,98.25l51.75,-2.5l2.931,17.884l-13.838,1.116l1.157,-10l-40,0.75" style="fill:#5c5e5f;fill-rule:nonzero;"/><path d="M127.148,137l12.842,55l21.344,0l14.726,-55l-48.912,0Z" style="fill:#f6f1e1;fill-rule:nonzero;"/><path d="M127.148,136.69l7.285,32.23l28.604,-32.26l-35.889,0.03Z" style="fill:#ecdbb1;fill-rule:nonzero;"/><path d="M139.99,192l-1.33,-4.133l34.075,-38.305l-11.401,42.438l-21.344,0Z" style="fill:#ecdbb1;fill-rule:nonzero;"/></g></g></g></svg>

<?xml version="1.0" encoding="UTF-8" standalone="no"?>
<!DOCTYPE svg PUBLIC "-//W3C//DTD SVG 1.1//EN" "http://www.w3.org/Graphics/SVG/1.1/DTD/svg11.dtd">
<svg width="100%" height="100%" viewBox="0 0 120 460" version="1.1" xmlns="http://www.w3.org/2000/svg" xmlns:xlink="http://www.w3.org/1999/xlink" xml:space="preserve" xmlns:serif="http://www.serif.com/" style="fill-rule:evenodd;clip-rule:evenodd;stroke-linejoin:round;stroke-miterlimit:2;">
    <g id="lamppost-right" transform="matrix(0.635,0,0,0.635,-0.96,-27.68)">
        <g id="post">
            <path d="M82.918,768L109.081,768L105.25,93.75L87.5,93.25L82.918,768Z" style="fill:rgb(92,94,95);fill-rule:nonzero;"/>
            <path d="M82.918,768L109.081,768L84.297,564.604L82.918,768Z" style="fill:rgb(42,43,42);fill-rule:nonzero;"/>
            <path d="M87.5,92.25L81.736,74.841L96.507,59.571L111.334,74.529L105.25,92.75L98.11,99.468L87.5,92.25Z" style="fill:rgb(92,94,95);fill-rule:nonzero;"/>
            <path d="M106.124,242.075L87.5,92.25L105.25,92.75L106.124,242.075Z" style="fill:rgb(42,43,42);fill-rule:nonzero;"/>
        </g>
        <g id="lantern-right">
            <path d="M132.918,202.5L112,132.5L142.5,112.25L160.25,112.75L191,132.334L167.667,202.833" style="fill:rgb(92,94,95);fill-rule:nonzero;"/>
            <path d="M191,133L114.148,133L160.25,113.25L191,133Z" style="fill:rgb(42,43,42);fill-rule:nonzero;"/>
            <path d="M103.25,98.25L155,95.75L157.931,113.634L144.093,114.75L145.25,104.75L105.25,105.5" style="fill:rgb(92,94,95);fill-rule:nonzero;"/>
            <path d="M127.148,137L139.99,192L161.334,192L176.06,137L127.148,137Z" style="fill:rgb(246,241,225);fill-rule:nonzero;"/>
            <path d="M127.148,136.69L134.433,168.92L163.037,136.66L127.148,136.69Z" style="fill:rgb(236,219,177);fill-rule:nonzero;"/>
            <path d="M139.99,192L138.66,187.867L172.735,149.562L161.334,192L139.99,192Z" style="fill:rgb(236,219,177);fill-rule:nonzero;"/>
        </g>
    </g>
</svg>
